X: 176
T: Jackie and Mamie's
T: Jig, F
C: David Greenberg
L: 1/16
M: 6/8
K: F
|: d2| c2A2F2 c2F2A2| c2A2F2 F2A2c2| d4b2 b2a2g2| a2f2d2 c2f2d2| 
c2A2F2 c2F2A2| c2A2F2 F2E2D2| C2E2G2 c2d2e2| [1 f6 f4:| [2 f4c2 A2B2c2|] 
|: d2b2f2 d2b2f2| d2a2g2 f4A2| B2A2B2 d2c2B2| A2F2F2 F2A2c2| 
d2b2f2 d2b2f2| d2a2g2 f2g2a2| b2g2e2 c2e2g2| [1 f4c2 A2B2c2:| [2 f6 f4|]
D: Buddy MacMaster, Glencoe Hall, BM-91
